domfk/img/card-link/card-link-bg.svg

<svg width="351" height="275" viewBox="0 0 351 275" fill="none" xmlns="http://www.w3.org/2000/svg">
<g opacity="0.3">
<path d="M328.81 63.1204L324.425 58.8931L328.653 54.5088L306.731 33.372L302.504 37.7563L298.12 33.529C295.708 31.204 291.833 31.2746 289.508 33.6859L287.394 35.8781C282.005 41.4681 281.817 50.086 286.576 55.9863C284.787 60.6061 285.358 65.9367 288.234 70.1054L281.681 76.9011L272.913 68.4464L268.685 72.8307L290.607 93.9674L294.834 89.5831L286.065 81.1284L292.618 74.3328C296.889 77.0546 302.236 77.431 306.788 75.4744C312.858 80.0156 321.463 79.5142 326.853 73.9242L328.967 71.732C331.292 69.3207 331.221 65.4455 328.81 63.1204ZM291.779 40.1054L293.892 37.9133L298.277 42.1406L290.202 50.5146C288.547 47.1421 289.031 42.9552 291.779 40.1054ZM294.442 68.054C290.825 64.5664 290.719 58.7536 294.206 55.1366L306.888 41.9837L320.041 54.6657L307.359 67.8186C303.872 71.4356 298.059 71.5416 294.442 68.054ZM322.469 69.6968C319.721 72.5466 315.555 73.1825 312.124 71.6513L320.198 63.2774L324.582 67.5047L322.469 69.6968Z" fill="black"/>
</g>
<g opacity="0.2">
<path d="M29.7299 232.942L27.0459 234.635L25.3529 231.951L11.9332 240.416L13.6262 243.1L10.9422 244.793C9.46605 245.724 9.02011 247.694 9.95124 249.17L10.7977 250.512C12.9563 253.934 17.2935 255.1 20.8706 253.425C22.9858 254.905 25.754 255.279 28.2207 254.342L30.8448 258.502L25.4769 261.888L27.1699 264.572L40.5896 256.107L38.8967 253.423L33.5288 256.809L30.9047 252.649C32.8128 250.826 33.6679 248.167 33.2436 245.621C36.2959 243.114 37.1118 238.697 34.9533 235.275L34.1068 233.933C33.1756 232.457 31.206 232.011 29.7299 232.942ZM13.4817 248.819L12.6352 247.477L15.3191 245.784L18.5527 250.91C16.6405 251.329 14.5821 250.564 13.4817 248.819ZM27.9544 250.945C25.7401 252.342 22.7857 251.673 21.389 249.459L16.3101 241.407L24.362 236.328L29.4409 244.38C30.8376 246.594 30.1686 249.549 27.9544 250.945ZM32.2693 236.968C33.3697 238.713 33.1736 240.9 31.9724 242.446L28.7389 237.319L31.4228 235.626L32.2693 236.968Z" fill="black"/>
</g>
<g opacity="0.35">
<path d="M59.7438 20.9629H52.0062C51.8347 20.9629 51.6667 20.9136 51.5224 20.8208C51.378 20.728 51.2634 20.5957 51.1922 20.4396L42.4421 1.26573C42.38 1.12953 42.353 0.979902 42.3637 0.830576C42.3744 0.68125 42.4224 0.536997 42.5034 0.411039C42.5843 0.285081 42.6955 0.181447 42.8269 0.109633C42.9582 0.0378188 43.1055 0.000122964 43.2552 1.42695e-08H50.9936C51.1652 -3.06265e-05 51.3332 0.0492854 51.4775 0.142068C51.6218 0.23485 51.7364 0.367184 51.8077 0.523289L57.9395 13.9696C57.9927 14.0861 58.0202 14.2127 58.0202 14.3408C58.0202 14.4689 57.9927 14.5955 57.9395 14.712L55.9081 19.1676H59.7411C59.9783 19.1676 60.2058 19.2618 60.3736 19.4296C60.5413 19.5973 60.6356 19.8249 60.6356 20.0621V20.0684C60.6356 20.3051 60.5417 20.5323 60.3745 20.6999C60.2074 20.8676 59.9805 20.9622 59.7438 20.9629ZM52.5814 19.1739H53.9411L56.1451 14.3435L50.4185 1.78902H44.6471L52.5814 19.1739Z" fill="black"/>
<path d="M62.2636 20.9566H54.5198C54.37 20.9566 54.2226 20.9191 54.0911 20.8473C53.9597 20.7756 53.8483 20.6719 53.7673 20.546C53.6863 20.42 53.6382 20.2757 53.6274 20.1263C53.6167 19.9769 53.6436 19.8272 53.7058 19.6909L62.4559 0.522395C62.5272 0.366595 62.6417 0.23454 62.7858 0.141933C62.93 0.0493261 63.0977 6.24739e-05 63.269 0H71.0146C71.1644 5.46243e-05 71.3118 0.0377422 71.4433 0.109604C71.5748 0.181465 71.6861 0.285198 71.767 0.411281C71.848 0.537364 71.8959 0.681758 71.9065 0.83121C71.9171 0.980661 71.89 1.13038 71.8277 1.26663L63.0776 20.4333C63.0064 20.5894 62.8918 20.7218 62.7475 20.8146C62.6031 20.9073 62.4352 20.9566 62.2636 20.9566ZM55.9125 19.1676H61.6911L69.6227 1.78902H63.8433L55.9125 19.1676Z" fill="black"/>
<path d="M66.5313 24.1679H47.742C47.5048 24.1679 47.2773 24.0737 47.1095 23.9059C46.9418 23.7382 46.8475 23.5107 46.8475 23.2734V17.4806C46.8475 17.2433 46.9418 17.0158 47.1095 16.8481C47.2773 16.6803 47.5048 16.5861 47.742 16.5861H50.829C51.0662 16.5861 51.2938 16.6803 51.4615 16.8481C51.6293 17.0158 51.7235 17.2433 51.7235 17.4806C51.7235 17.7178 51.6293 17.9453 51.4615 18.1131C51.2938 18.2808 51.0662 18.3751 50.829 18.3751H48.6366V22.3789H65.6412V18.3751H63.4425C63.2053 18.3751 62.9778 18.2808 62.81 18.1131C62.6422 17.9453 62.548 17.7178 62.548 17.4806C62.548 17.2433 62.6422 17.0158 62.81 16.8481C62.9778 16.6803 63.2053 16.5861 63.4425 16.5861H66.5313C66.7685 16.5861 66.996 16.6803 67.1638 16.8481C67.3315 17.0158 67.4258 17.2433 67.4258 17.4806V23.2734C67.4258 23.5107 67.3315 23.7382 67.1638 23.9059C66.996 24.0737 66.7685 24.1679 66.5313 24.1679Z" fill="black"/>
<path d="M57.1344 62.6158C53.5479 62.616 50.0418 61.5526 47.0597 59.5602C44.0775 57.5677 41.7531 54.7356 40.3805 51.4221C39.0079 48.1086 38.6487 44.4625 39.3484 40.9448C40.0481 37.4272 41.7751 34.196 44.3112 31.66C46.8473 29.1239 50.0784 27.3968 53.5961 26.6972C57.1137 25.9975 60.7599 26.3567 64.0734 27.7293C67.3869 29.1019 70.2189 31.4262 72.2114 34.4084C74.2039 37.3906 75.2673 40.8966 75.2671 44.4832C75.2616 49.2906 73.3495 53.8995 69.9501 57.2989C66.5508 60.6982 61.9418 62.6104 57.1344 62.6158ZM57.1344 28.1387C53.9018 28.1385 50.7416 29.0969 48.0537 30.8928C45.3657 32.6886 43.2707 35.2412 42.0334 38.2278C40.7962 41.2144 40.4724 44.5007 41.103 47.6713C41.7335 50.8419 43.2901 53.7543 45.5759 56.0402C47.8617 58.3261 50.774 59.8829 53.9446 60.5136C57.1151 61.1443 60.4015 60.8207 63.3881 59.5836C66.3747 58.3466 68.9275 56.2517 70.7235 53.5638C72.5195 50.876 73.4781 47.7159 73.4781 44.4832C73.4733 40.15 71.7499 35.9956 68.686 32.9314C65.622 29.8673 61.4677 28.1437 57.1344 28.1387Z" fill="black"/>
<path d="M57.1344 58.3973C54.3822 58.3975 51.6918 57.5815 49.4033 56.0526C47.1149 54.5236 45.3312 52.3504 44.2779 49.8078C43.2246 47.2651 42.949 44.4672 43.4858 41.7678C44.0227 39.0685 45.348 36.589 47.2941 34.6429C49.2402 32.6968 51.7197 31.3715 54.4191 30.8346C57.1184 30.2977 59.9163 30.5734 62.459 31.6267C65.0017 32.68 67.1749 34.4636 68.7038 36.7521C70.2328 39.0405 71.0487 41.731 71.0486 44.4832C71.0443 48.1721 69.577 51.7088 66.9685 54.3173C64.36 56.9257 60.8234 58.393 57.1344 58.3973ZM57.1344 32.3572C54.7361 32.357 52.3916 33.068 50.3973 34.4003C48.4031 35.7327 46.8488 37.6264 45.9308 39.8421C45.0129 42.0579 44.7726 44.496 45.2404 46.8483C45.7082 49.2006 46.863 51.3613 48.5588 53.0572C50.2547 54.7532 52.4153 55.9082 54.7675 56.3761C57.1198 56.8441 59.558 56.604 61.7737 55.6862C63.9895 54.7685 65.8834 53.2143 67.2159 51.2201C68.5483 49.226 69.2595 46.8815 69.2595 44.4832C69.256 41.2684 67.9774 38.1863 65.7043 35.913C63.4312 33.6398 60.3492 32.361 57.1344 32.3572Z" fill="black"/>
<path d="M60.0111 28.3426C59.7739 28.3426 59.5464 28.2484 59.3786 28.0806C59.2109 27.9129 59.1166 27.6853 59.1166 27.4481V24.1706H55.153V27.4481C55.153 27.6853 55.0588 27.9129 54.891 28.0806C54.7233 28.2484 54.4958 28.3426 54.2585 28.3426C54.0213 28.3426 53.7938 28.2484 53.626 28.0806C53.4583 27.9129 53.364 27.6853 53.364 27.4481V23.2761C53.364 23.0389 53.4583 22.8113 53.626 22.6436C53.7938 22.4758 54.0213 22.3816 54.2585 22.3816H60.0111C60.2484 22.3816 60.4759 22.4758 60.6436 22.6436C60.8114 22.8113 60.9056 23.0389 60.9056 23.2761V27.4481C60.9056 27.6853 60.8114 27.9129 60.6436 28.0806C60.4759 28.2484 60.2484 28.3426 60.0111 28.3426Z" fill="black"/>
<path d="M61.4075 51.1553C61.2626 51.1552 61.1198 51.1199 60.9916 51.0524L57.1344 49.0255L53.2773 51.0524C53.1296 51.1301 52.9631 51.1649 52.7966 51.1529C52.6301 51.1408 52.4703 51.0825 52.3353 50.9844C52.2003 50.8863 52.0954 50.7524 52.0325 50.5978C51.9696 50.4432 51.9512 50.2741 51.9793 50.1096L52.7164 45.816L49.5955 42.7746C49.4759 42.6581 49.3913 42.5105 49.3512 42.3484C49.3111 42.1864 49.3172 42.0163 49.3688 41.8575C49.4204 41.6987 49.5153 41.5575 49.643 41.4499C49.7706 41.3423 49.9258 41.2726 50.091 41.2486L54.4035 40.6224L56.3294 36.7134C56.4116 36.5737 56.5289 36.458 56.6696 36.3775C56.8104 36.2971 56.9696 36.2548 57.1317 36.2548C57.2938 36.2548 57.4531 36.2971 57.5938 36.3775C57.7346 36.458 57.8519 36.5737 57.9341 36.7134L59.8627 40.6206L64.1751 41.2468C64.3403 41.2708 64.4955 41.3405 64.6232 41.4481C64.7508 41.5558 64.8458 41.6969 64.8973 41.8557C64.9489 42.0145 64.955 42.1846 64.915 42.3466C64.8749 42.5087 64.7903 42.6563 64.6707 42.7728L61.5497 45.8142L62.2868 50.1078C62.3088 50.2362 62.3025 50.3679 62.2683 50.4936C62.2342 50.6194 62.1729 50.7361 62.0889 50.8357C62.0049 50.9353 61.9002 51.0154 61.782 51.0702C61.6638 51.1251 61.5351 51.1536 61.4048 51.1535L61.4075 51.1553ZM57.1344 47.1201C57.2794 47.1199 57.4222 47.1552 57.5504 47.223L60.2196 48.6256L59.7097 45.654C59.6851 45.511 59.6957 45.364 59.7406 45.2259C59.7855 45.0879 59.8633 44.9628 59.9673 44.8615L62.1267 42.7576L59.1426 42.3247C58.9991 42.3038 58.8628 42.2484 58.7454 42.1632C58.6281 42.0779 58.5332 41.9654 58.469 41.8354L57.1344 39.1304L55.7998 41.8345C55.7356 41.9645 55.6408 42.077 55.5234 42.1623C55.4061 42.2475 55.2698 42.3029 55.1262 42.3238L52.1422 42.7567L54.3015 44.8615C54.4055 44.9628 54.4834 45.0879 54.5282 45.2259C54.5731 45.364 54.5837 45.511 54.5591 45.654L54.0492 48.6256L56.7185 47.223C56.8466 47.1552 56.9894 47.1199 57.1344 47.1201Z" fill="black"/>
</g>
<g opacity="0.3">
<path d="M320.892 231.58C321.616 230.874 321.872 229.838 321.559 228.876C321.246 227.914 320.43 227.226 319.43 227.081L310.677 225.809C310.505 225.784 310.357 225.676 310.28 225.52L306.366 217.59C305.918 216.683 305.012 216.119 304 216.119C302.989 216.119 302.083 216.683 301.635 217.59L297.721 225.521C297.644 225.676 297.495 225.784 297.324 225.809L288.571 227.081C287.57 227.226 286.755 227.914 286.442 228.876C286.129 229.838 286.385 230.874 287.109 231.58L293.443 237.754C293.567 237.875 293.624 238.049 293.594 238.221L292.099 246.937C291.928 247.934 292.33 248.923 293.149 249.517C293.967 250.112 295.032 250.189 295.927 249.718L303.755 245.603C303.909 245.522 304.092 245.522 304.246 245.603L312.074 249.718C312.464 249.923 312.885 250.024 313.304 250.024C313.849 250.024 314.39 249.854 314.852 249.517C315.67 248.923 316.073 247.934 315.902 246.937L314.407 238.221C314.377 238.049 314.434 237.875 314.558 237.754L320.892 231.58ZM312.327 238.577L313.822 247.294C313.872 247.586 313.692 247.752 313.612 247.81C313.532 247.868 313.318 247.988 313.056 247.85L305.228 243.735C304.844 243.533 304.422 243.432 304.001 243.432C303.579 243.432 303.157 243.533 302.773 243.735L294.945 247.85C294.683 247.988 294.469 247.868 294.389 247.81C294.309 247.752 294.129 247.586 294.179 247.294L295.674 238.577C295.821 237.722 295.538 236.849 294.916 236.243L288.583 230.069C288.371 229.862 288.419 229.622 288.449 229.528C288.48 229.435 288.582 229.212 288.875 229.169L297.627 227.897C298.486 227.773 299.229 227.233 299.613 226.454L303.528 218.524C303.659 218.258 303.902 218.229 304.001 218.229C304.099 218.229 304.343 218.258 304.474 218.524V218.524L308.388 226.455C308.772 227.233 309.515 227.773 310.374 227.898L319.126 229.169C319.419 229.212 319.522 229.435 319.552 229.528C319.583 229.622 319.631 229.863 319.419 230.069L313.085 236.243C312.463 236.849 312.18 237.722 312.327 238.577Z" fill="black"/>
<path d="M316.327 217.589C315.855 217.247 315.195 217.351 314.853 217.823L313.733 219.364C313.39 219.836 313.495 220.495 313.966 220.838C314.154 220.974 314.371 221.04 314.586 221.04C314.912 221.04 315.234 220.889 315.44 220.605L316.56 219.063C316.903 218.592 316.798 217.932 316.327 217.589Z" fill="black"/>
<path d="M294.262 219.358L293.142 217.816C292.8 217.345 292.14 217.241 291.668 217.583C291.197 217.925 291.092 218.585 291.435 219.057L292.555 220.598C292.761 220.883 293.083 221.033 293.41 221.033C293.625 221.033 293.842 220.968 294.029 220.832C294.5 220.489 294.605 219.829 294.262 219.358Z" fill="black"/>
<path d="M287.871 239.793C287.691 239.238 287.096 238.935 286.542 239.115L284.729 239.704C284.175 239.884 283.872 240.48 284.052 241.034C284.197 241.48 284.61 241.763 285.055 241.763C285.163 241.763 285.273 241.746 285.382 241.711L287.194 241.122C287.748 240.942 288.051 240.347 287.871 239.793Z" fill="black"/>
<path d="M304 251.508C303.418 251.508 302.945 251.98 302.945 252.563V254.469C302.945 255.051 303.418 255.524 304 255.524C304.583 255.524 305.056 255.051 305.056 254.469V252.563C305.056 251.98 304.583 251.508 304 251.508Z" fill="black"/>
<path d="M323.27 239.706L321.458 239.117C320.904 238.937 320.309 239.24 320.129 239.794C319.949 240.348 320.252 240.944 320.806 241.124L322.618 241.713C322.727 241.748 322.836 241.765 322.945 241.765C323.389 241.765 323.803 241.481 323.948 241.035C324.128 240.481 323.825 239.886 323.27 239.706Z" fill="black"/>
</g>
<g opacity="0.3">
<path d="M266.213 207.89C266.629 207.484 266.776 206.888 266.596 206.335C266.417 205.782 265.948 205.387 265.372 205.303L260.339 204.572C260.241 204.557 260.155 204.495 260.111 204.406L257.86 199.846C257.603 199.324 257.082 199 256.5 199C255.919 199 255.397 199.324 255.14 199.846L252.89 204.406C252.845 204.495 252.76 204.557 252.661 204.572L247.629 205.303C247.053 205.387 246.584 205.782 246.404 206.335C246.224 206.888 246.371 207.484 246.788 207.89L250.43 211.44C250.501 211.51 250.534 211.61 250.517 211.708L249.657 216.721C249.559 217.294 249.79 217.862 250.26 218.204C250.731 218.546 251.343 218.59 251.858 218.32L256.359 215.953C256.448 215.907 256.553 215.907 256.642 215.953L261.143 218.32C261.367 218.437 261.609 218.495 261.85 218.495C262.163 218.495 262.474 218.397 262.74 218.204C263.211 217.862 263.442 217.294 263.343 216.721L262.484 211.708C262.467 211.61 262.5 211.509 262.571 211.44L266.213 207.89ZM261.288 211.914L262.148 216.926C262.176 217.094 262.073 217.189 262.027 217.222C261.981 217.256 261.858 217.325 261.707 217.246L257.206 214.879C256.985 214.763 256.743 214.705 256.5 214.705C256.258 214.705 256.015 214.763 255.795 214.879L251.293 217.245C251.143 217.325 251.02 217.256 250.974 217.222C250.928 217.189 250.824 217.093 250.853 216.926L251.713 211.914C251.797 211.421 251.634 210.92 251.277 210.571L247.635 207.021C247.513 206.902 247.541 206.764 247.558 206.71C247.576 206.656 247.635 206.528 247.803 206.504L252.836 205.773C253.33 205.701 253.757 205.391 253.978 204.943L256.228 200.383C256.304 200.23 256.444 200.213 256.5 200.213C256.557 200.213 256.697 200.23 256.772 200.383V200.383L259.023 204.943C259.244 205.391 259.671 205.701 260.165 205.773L265.198 206.504C265.366 206.528 265.425 206.656 265.442 206.71C265.46 206.764 265.488 206.903 265.366 207.021L261.724 210.571C261.367 210.92 261.204 211.421 261.288 211.914Z" fill="black"/>
<path d="M263.588 199.845C263.317 199.648 262.937 199.708 262.74 199.979L262.096 200.866C261.899 201.137 261.96 201.516 262.231 201.713C262.338 201.792 262.463 201.829 262.587 201.829C262.774 201.829 262.959 201.742 263.078 201.579L263.722 200.693C263.919 200.422 263.859 200.042 263.588 199.845Z" fill="black"/>
<path d="M250.901 200.862L250.257 199.976C250.06 199.705 249.68 199.645 249.409 199.842C249.138 200.039 249.078 200.418 249.275 200.689L249.919 201.576C250.038 201.739 250.223 201.826 250.411 201.826C250.534 201.826 250.659 201.788 250.767 201.71C251.038 201.513 251.098 201.133 250.901 200.862Z" fill="black"/>
<path d="M247.226 212.612C247.122 212.294 246.78 212.119 246.461 212.223L245.419 212.561C245.101 212.665 244.926 213.007 245.03 213.326C245.113 213.582 245.351 213.745 245.607 213.745C245.669 213.745 245.732 213.736 245.794 213.715L246.836 213.377C247.155 213.273 247.33 212.931 247.226 212.612Z" fill="black"/>
<path d="M256.5 219.349C256.165 219.349 255.894 219.62 255.894 219.955V221.051C255.894 221.386 256.165 221.658 256.5 221.658C256.835 221.658 257.107 221.386 257.107 221.051V219.955C257.107 219.62 256.835 219.349 256.5 219.349Z" fill="black"/>
<path d="M267.581 212.562L266.539 212.224C266.22 212.12 265.878 212.294 265.774 212.613C265.67 212.932 265.845 213.274 266.164 213.378L267.206 213.716C267.268 213.736 267.331 213.746 267.393 213.746C267.649 213.746 267.887 213.583 267.97 213.327C268.074 213.008 267.899 212.666 267.581 212.562Z" fill="black"/>
</g>
</svg>

<svg width="351" height="275" fill="none" xmlns="http://www.w3.org/2000/svg"><path d="M328.81 63.12l-4.385-4.227 4.228-4.384-21.922-21.137-4.227 4.384-4.384-4.227c-2.412-2.325-6.287-2.254-8.612.157l-2.114 2.192c-5.389 5.59-5.577 14.208-.818 20.108-1.789 4.62-1.218 9.95 1.658 14.12l-6.553 6.795-8.768-8.455-4.228 4.385 21.922 21.136 4.227-4.384-8.769-8.455 6.553-6.795c4.271 2.722 9.618 3.098 14.17 1.141 6.07 4.542 14.675 4.04 20.065-1.55l2.114-2.192c2.325-2.411 2.254-6.287-.157-8.612zm-37.031-23.015l2.113-2.192 4.385 4.228-8.075 8.374c-1.655-3.373-1.171-7.56 1.577-10.41zm2.663 27.949c-3.617-3.488-3.723-9.3-.236-12.917l12.682-13.153 13.153 12.682-12.682 13.153c-3.487 3.617-9.3 3.723-12.917.235zm28.027 1.643c-2.748 2.85-6.914 3.486-10.345 1.954l8.074-8.374 4.384 4.228-2.113 2.192z" fill="#000" opacity=".3"/><path d="M29.73 232.942l-2.684 1.693-1.693-2.684-13.42 8.465 1.693 2.684-2.684 1.693a3.183 3.183 0 00-.99 4.377l.846 1.342c2.158 3.422 6.496 4.588 10.073 2.913a7.947 7.947 0 007.35.917l2.624 4.16-5.368 3.386 1.693 2.684 13.42-8.465-1.693-2.684-5.368 3.386-2.624-4.16a7.948 7.948 0 002.339-7.028c3.052-2.507 3.868-6.924 1.71-10.346l-.847-1.342a3.183 3.183 0 00-4.377-.991zm-16.248 15.877l-.847-1.342 2.684-1.693 3.234 5.126c-1.913.419-3.97-.346-5.071-2.091zm14.472 2.126a4.774 4.774 0 01-6.565-1.486l-5.079-8.052 8.052-5.079 5.079 8.052a4.773 4.773 0 01-1.487 6.565zm4.315-13.977c1.1 1.745.905 3.932-.297 5.478l-3.233-5.127 2.684-1.693.846 1.342z" fill="#000" opacity=".2"/><g opacity=".35" fill="#000"><path d="M59.744 20.963h-7.738a.895.895 0 01-.814-.523l-8.75-19.174A.895.895 0 0143.255 0h7.739a.894.894 0 01.814.523L57.94 13.97a.894.894 0 010 .742l-2.032 4.456h3.833a.894.894 0 01.895.894v.006a.894.894 0 01-.892.895zm-7.163-1.79h1.36l2.204-4.83L50.418 1.79h-5.77l7.933 17.385z"/><path d="M62.264 20.957H54.52a.894.894 0 01-.814-1.266L62.456.522A.895.895 0 0163.269 0h7.746a.895.895 0 01.813 1.267l-8.75 19.166a.895.895 0 01-.814.524zm-6.352-1.79h5.78l7.93-17.378h-5.779l-7.93 17.379z"/><path d="M66.531 24.168H47.742a.894.894 0 01-.895-.895v-5.792a.895.895 0 01.895-.895h3.087a.894.894 0 110 1.79h-2.192v4.003H65.64v-4.004h-2.199a.895.895 0 010-1.789h3.09a.894.894 0 01.894.895v5.792a.895.895 0 01-.895.895z"/><path d="M57.134 62.616a18.133 18.133 0 1118.133-18.133 18.153 18.153 0 01-18.133 18.133zm0-34.477a16.344 16.344 0 1016.344 16.344A16.363 16.363 0 0057.134 28.14z"/><path d="M57.134 58.397A13.915 13.915 0 1171.05 44.483a13.93 13.93 0 01-13.915 13.914zm0-26.04A12.126 12.126 0 1069.26 44.483a12.14 12.14 0 00-12.126-12.126z"/><path d="M60.011 28.343a.894.894 0 01-.894-.895v-3.277h-3.964v3.277a.894.894 0 11-1.789 0v-4.172a.895.895 0 01.895-.894h5.752a.894.894 0 01.895.894v4.172a.894.894 0 01-.895.895zm1.396 22.812a.894.894 0 01-.415-.103l-3.858-2.026-3.857 2.026a.894.894 0 01-1.298-.942l.737-4.294-3.12-3.041a.895.895 0 01.495-1.526l4.313-.627 1.925-3.909a.931.931 0 011.605 0l1.929 3.908 4.312.626a.895.895 0 01.496 1.526l-3.121 3.041.737 4.294a.894.894 0 01-.882 1.046l.002.001zm-4.273-4.035c.145 0 .288.035.416.103l2.67 1.403-.51-2.972a.894.894 0 01.257-.793l2.16-2.103-2.984-.433a.896.896 0 01-.674-.49l-1.335-2.705-1.334 2.704a.895.895 0 01-.674.49l-2.984.433 2.16 2.105a.894.894 0 01.257.792l-.51 2.972 2.67-1.403a.886.886 0 01.415-.103z"/></g><path d="M320.892 231.58a2.62 2.62 0 00.667-2.704 2.622 2.622 0 00-2.129-1.795l-8.753-1.272a.527.527 0 01-.397-.289l-3.914-7.93a2.623 2.623 0 00-2.366-1.471 2.622 2.622 0 00-2.365 1.471l-3.914 7.931a.53.53 0 01-.397.288l-8.753 1.272a2.62 2.62 0 00-2.129 1.795 2.62 2.62 0 00.667 2.704l6.334 6.174a.525.525 0 01.151.467l-1.495 8.716a2.62 2.62 0 001.05 2.58 2.62 2.62 0 002.778.201l7.828-4.115a.526.526 0 01.491 0l7.828 4.115a2.62 2.62 0 002.778-.201 2.622 2.622 0 001.05-2.58l-1.495-8.716a.525.525 0 01.151-.467l6.334-6.174zm-8.565 6.997l1.495 8.717a.514.514 0 01-.21.516.514.514 0 01-.556.04l-7.828-4.115a2.636 2.636 0 00-2.455 0l-7.828 4.115a.514.514 0 01-.556-.04.514.514 0 01-.21-.516l1.495-8.717a2.635 2.635 0 00-.758-2.334l-6.333-6.174a.516.516 0 01-.134-.541.517.517 0 01.426-.359l8.752-1.272a2.634 2.634 0 001.986-1.443l3.915-7.93a.514.514 0 01.473-.295c.098 0 .342.029.473.295l3.914 7.931a2.64 2.64 0 001.986 1.443l8.752 1.271a.515.515 0 01.426.359.513.513 0 01-.133.541l-6.334 6.174a2.635 2.635 0 00-.758 2.334zm4-20.988a1.055 1.055 0 00-1.474.234l-1.12 1.541a1.055 1.055 0 001.707 1.241l1.12-1.542a1.055 1.055 0 00-.233-1.474zm-22.065 1.769l-1.12-1.542a1.056 1.056 0 00-1.707 1.241l1.12 1.541c.206.285.528.435.855.435a1.055 1.055 0 00.852-1.675zm-6.391 20.435a1.054 1.054 0 00-1.329-.678l-1.813.589a1.056 1.056 0 00.653 2.007l1.812-.589c.554-.18.857-.775.677-1.329zM304 251.508c-.582 0-1.055.472-1.055 1.055v1.906a1.056 1.056 0 002.111 0v-1.906c0-.583-.473-1.055-1.056-1.055zm19.27-11.802l-1.812-.589a1.055 1.055 0 10-.652 2.007l1.812.589a1.057 1.057 0 00.652-2.007zm-57.057-31.816a1.508 1.508 0 00.383-1.555 1.506 1.506 0 00-1.224-1.032l-5.033-.731a.307.307 0 01-.228-.166l-2.251-4.56a1.506 1.506 0 00-1.36-.846c-.581 0-1.103.324-1.36.846l-2.25 4.56a.308.308 0 01-.229.166l-5.032.731a1.508 1.508 0 00-1.225 1.032 1.506 1.506 0 00.384 1.555l3.642 3.55c.071.07.104.17.087.268l-.86 5.013a1.508 1.508 0 00.603 1.483 1.51 1.51 0 001.598.116l4.501-2.367a.307.307 0 01.283 0l4.501 2.367a1.513 1.513 0 001.597-.116c.471-.342.702-.91.603-1.483l-.859-5.013a.303.303 0 01.087-.268l3.642-3.55zm-4.925 4.024l.86 5.012a.295.295 0 01-.121.296.295.295 0 01-.32.024l-4.501-2.367a1.517 1.517 0 00-1.411 0l-4.502 2.366a.292.292 0 01-.319-.023.294.294 0 01-.121-.296l.86-5.012a1.52 1.52 0 00-.436-1.343l-3.642-3.55a.297.297 0 01-.077-.311.296.296 0 01.245-.206l5.033-.731a1.517 1.517 0 001.142-.83l2.25-4.56a.297.297 0 01.272-.17c.057 0 .197.017.272.17l2.251 4.56c.221.448.648.758 1.142.83l5.033.731a.293.293 0 01.244.206.294.294 0 01-.076.311l-3.642 3.55a1.52 1.52 0 00-.436 1.343zm2.3-12.069a.607.607 0 00-.848.134l-.644.887a.606.606 0 00.982.713l.644-.886a.607.607 0 00-.134-.848zm-12.687 1.017l-.644-.886a.607.607 0 00-.982.713l.644.887a.608.608 0 00.982-.714zm-3.675 11.75a.607.607 0 00-.765-.389l-1.042.338a.607.607 0 00.375 1.154l1.042-.338a.607.607 0 00.39-.765zm9.274 6.737a.606.606 0 00-.606.606v1.096a.606.606 0 101.213 0v-1.096a.606.606 0 00-.607-.606zm11.081-6.787l-1.042-.338a.606.606 0 10-.375 1.154l1.042.338a.607.607 0 00.375-1.154z" opacity=".3" fill="#000"/></svg>
